build/assets/footerTwitter.svg

<svg width="48" height="48" viewBox="0 0 48 48" fill="none" xmlns="http://www.w3.org/2000/svg">
<path fill-rule="evenodd" clip-rule="evenodd" d="M0 24C0 10.7452 10.7452 0 24 0C37.2548 0 48 10.7452 48 24C48 37.2548 37.2548 48 24 48C10.7452 48 0 37.2548 0 24ZM23.2812 19.5075L23.3316 20.338L22.4922 20.2363C19.4369 19.8465 16.7677 18.5245 14.5013 16.3043L13.3934 15.2027L13.108 16.0162C12.5036 17.8296 12.8897 19.7448 14.1488 21.0328C14.8203 21.7446 14.6692 21.8463 13.5109 21.4226C13.108 21.287 12.7554 21.1854 12.7219 21.2362C12.6044 21.3548 13.0072 22.8971 13.3262 23.5072C13.7627 24.3546 14.6524 25.1851 15.6261 25.6766L16.4487 26.0664L15.475 26.0833C14.5349 26.0833 14.5013 26.1003 14.6021 26.4562C14.9378 27.5578 16.264 28.7272 17.7413 29.2357L18.7822 29.5916L17.8756 30.1339C16.5326 30.9135 14.9546 31.3542 13.3766 31.3881C12.6211 31.405 12 31.4728 12 31.5237C12 31.6931 14.0481 32.6422 15.24 33.0151C18.8157 34.1167 23.063 33.6422 26.2526 31.7609C28.5189 30.422 30.7852 27.7612 31.8428 25.1851C32.4136 23.8123 32.9844 21.304 32.9844 20.1007C32.9844 19.3211 33.0347 19.2194 33.9748 18.2872C34.5288 17.7449 35.0492 17.1517 35.15 16.9822C35.3178 16.6602 35.3011 16.6602 34.4449 16.9483C33.018 17.4568 32.8165 17.389 33.5216 16.6263C34.042 16.084 34.6631 15.101 34.6631 14.8129C34.6631 14.762 34.4113 14.8468 34.1259 14.9993C33.8238 15.1688 33.1523 15.423 32.6486 15.5756L31.7421 15.8637L30.9195 15.3044C30.4663 14.9993 29.8283 14.6604 29.4926 14.5587C28.6364 14.3214 27.327 14.3553 26.5548 14.6265C24.4563 15.3891 23.1301 17.3551 23.2812 19.5075Z" fill="#B0B0B0"/>
</svg>

<svg width="48" height="48" fill="none" xmlns="http://www.w3.org/2000/svg"><path fill-rule="evenodd" clip-rule="evenodd" d="M0 24C0 10.745 10.745 0 24 0s24 10.745 24 24-10.745 24-24 24S0 37.255 0 24Zm23.281-4.492.05.83-.839-.102c-3.055-.39-5.724-1.712-7.99-3.932l-1.109-1.101-.285.813c-.604 1.814-.218 3.729 1.04 5.017.672.712.521.813-.637.39-.403-.136-.756-.238-.79-.187-.117.119.286 1.661.605 2.271.437.848 1.326 1.678 2.3 2.17l.823.39-.974.016c-.94 0-.974.017-.873.373.336 1.102 1.662 2.271 3.14 2.78l1.04.356-.906.542a9.452 9.452 0 0 1-4.5 1.254c-.755.017-1.376.085-1.376.136 0 .17 2.048 1.118 3.24 1.491 3.576 1.102 7.823.627 11.013-1.254 2.266-1.339 4.532-4 5.59-6.576.57-1.373 1.141-3.881 1.141-5.084 0-.78.05-.882.99-1.814.555-.542 1.075-1.135 1.176-1.305.168-.322.151-.322-.705-.034-1.427.509-1.629.441-.923-.322.52-.542 1.141-1.525 1.141-1.813 0-.051-.252.034-.537.186-.302.17-.974.424-1.477.577l-.907.288-.823-.56c-.453-.305-1.09-.644-1.426-.745-.857-.238-2.166-.204-2.938.068-2.099.762-3.425 2.728-3.274 4.88Z" fill="#B0B0B0"/></svg>
